X: 1
M: 4/4
Q: 1/4=200
%%score (Contrapunctus) (CantusFirmus)
L: 1/8
V:CantusFirmus name="Cantus Firmus"
V:Contrapunctus name=Contrapunctus
K: DDor
[V:CantusFirmus] D8 |C8 |B,8 |E8 |B,8 |C8 |F8 |E8 |F8 |E8 |C8 |D8 |E8 |D8 |
[V:Contrapunctus] c4 G4 |F4 d2 E1 d1 |d8 |c4 A2 d1 B1 |B8 |G2 B1 d1 E4 |D2 E1 E1 F4 |G8 |A8 |G8 |A8 |B8 |^c8 |d8 |
%#    0: [2],[6],[1],[5],[2]
%#    5: [2],[3],[3],[0],[7],[3],[2],[2],[0],[6],[5],[1],[7],[1],[0],[1]
%#   21: [7],[3],[7],[0],[1],[3],[1],[7],[5],[0],[6],[6],[2],[6],[0],[2]
%#   37: [2],[1],[4],[2],[0],[7],[5],[3],[5],[0],[1],[5],[2],[5],[4],[0]
%#   53: [1],[4],[1],[3],[0],[5],[7],[2],[1],[5],[1],[1],[7],[1],[0],[0]
%#   69: [1],[1],[2],[2],[5],[0],[7],[1],[3],[3],[1],[2],[0],[2],[3],[4]
%#   85: [1],[4],[7],[3],[4],[0],[6],[7],[2],[4],[2],[1],[5],[3],[3],[3]
%#  101: [0],[4],[4],[1],[3],[6],[0],[0],[5],[3],[4],[1],[5],[0],[2],[2]
%#  117: [3],[1],[5],[4],[3],[5],[0],[5],[7],[1],[1],[6],[0],[2],[7]
